raw-svg/pause-circle.svg

<svg fill="none" height="24" viewBox="0 0 24 24" width="24" xmlns="http://www.w3.org/2000/svg"><path clip-rule="evenodd" d="m12 4.5c-4.14214 0-7.5 3.35786-7.5 7.5 0 4.1421 3.35786 7.5 7.5 7.5 4.1421 0 7.5-3.3579 7.5-7.5 0-4.14214-3.3579-7.5-7.5-7.5zm-9 7.5c0-4.97056 4.02944-9 9-9 4.9706 0 9 4.02944 9 9 0 4.9706-4.0294 9-9 9-4.97056 0-9-4.0294-9-9zm7-3.75c.4142 0 .75.33579.75.75v6c0 .4142-.3358.75-.75.75-.41421 0-.75-.3358-.75-.75v-6c0-.41421.33579-.75.75-.75zm4.75.75c0-.41421-.3358-.75-.75-.75s-.75.33579-.75.75v6c0 .4142.3358.75.75.75s.75-.3358.75-.75z" fill="#000" fill-rule="evenodd"/></svg>

<svg width="24" height="24" viewBox="0 0 24 24" fill="none" xmlns="http://www.w3.org/2000/svg">
<path fill-rule="evenodd" clip-rule="evenodd" d="M12 4.5C7.85786 4.5 4.5 7.85786 4.5 12C4.5 16.1421 7.85786 19.5 12 19.5C16.1421 19.5 19.5 16.1421 19.5 12C19.5 7.85786 16.1421 4.5 12 4.5ZM3 12C3 7.02944 7.02944 3 12 3C16.9706 3 21 7.02944 21 12C21 16.9706 16.9706 21 12 21C7.02944 21 3 16.9706 3 12ZM10 8.25C10.4142 8.25 10.75 8.58579 10.75 9V15C10.75 15.4142 10.4142 15.75 10 15.75C9.58579 15.75 9.25 15.4142 9.25 15V9C9.25 8.58579 9.58579 8.25 10 8.25ZM14.75 9C14.75 8.58579 14.4142 8.25 14 8.25C13.5858 8.25 13.25 8.58579 13.25 9V15C13.25 15.4142 13.5858 15.75 14 15.75C14.4142 15.75 14.75 15.4142 14.75 15V9Z" fill="black"/>
</svg>
